X:35
T:Highland Blueberry
R:reel
C:Paul S. Cranford
O:20th Century Cape Breton
D:The Lighthouse, Cranford Publications
B:The Lighthouse Collection, ISBN 0-9691181-5-5
N:Contacts ...
N:..... Cranford Publications <http://www.cranfordpub.com>
Z:This abc transcription is for personal use only,
Z:provided this notice remains attached.
Z:Used by permission of the composer and publisher.
Z:Paul Stewart Cranford 
Q:324
L:1/8
M:C|
K:Gdor
DF|G2 GA GFDF|G2 BG AFGE|F2 FG FCA,C|F2 AF BGAF|!
G2 GA GFDF|G2 BG AFGg|afge fdec|BdcA G2:|!
Bd|g2 ga gdBd|bgaf gbag|f2 fg fcfg|abga fagf|!
g2 ga gdBd|bgaf gbag|afge fdec|BdcA G2:|!
